X: 4248
T: HEATHER HILLS
%R: jig
B: James Kerr "Merry Melodies" v.4 p.27 #248
Z: 2016 John Chambers <jc:trillian.mit.edu>
M: 6/8
L: 1/8
K: D
A |\
FGA A2f | edc B2d | ABc def | agf e2A |\
FGA A2f | edc B2d | ABc def | edd d2 :|
|: f |\
a2b agf | g2a gfe | fed agf | fee e2A |\
FGA A2f | edc B2d | ABc def | edd d2 :|

%%sep 1 1 500
%%sep 1 1 500

